static/assets/head_icons_png/man/bizi/1004535.svg

<svg xmlns="http://www.w3.org/2000/svg" width="24" height="44"><g transform="translate(3.3 5.85)"><radialGradient id="a" gradientUnits="userSpaceOnUse" gradientTransform="matrix(.00568 -.00223 .00215 .01636 13.6 20.35)" spreadMethod="pad" cx="0" cy="0" r="819.2" fx="0" fy="0"><stop offset=".337" stop-color="#f9c29f"/><stop offset="1" stop-color="#fedec1" stop-opacity="0"/></radialGradient><path d="M19.7 22.4q.05 2.75-3.05 5.2-1.05.75-1.7 4.1V31.85l-.2-.4q-.85-4.65-1.1-9.95-.25-5.25-.05-13.5l.2 1.8-.15-1.95q2.25 8.9 4.55 10.45l1.1 1q.4.8.4 3.1" fill="url(#a)"/><radialGradient id="b" gradientUnits="userSpaceOnUse" gradientTransform="matrix(.00397 0 0 .0083 2.55 20.55)" spreadMethod="pad" cx="0" cy="0" r="819.2" fx="0" fy="0"><stop offset="0" stop-color="#f8c898"/><stop offset=".035" stop-color="#fdc7a7"/><stop offset="1" stop-color="#fdddc0"/></radialGradient><path d="M5.25 26.5l-.1 1q-4.4 2.35-3.8-.9l1-6.7 1.1-10.15 1.3 6.8q.8 5.6.5 9.95" fill="url(#b)"/><radialGradient id="c" gradientUnits="userSpaceOnUse" gradientTransform="matrix(.0001 .0066 -.04132 .00078 13.05 33.9)" spreadMethod="pad" cx="0" cy="0" r="819.2" fx="0" fy="0"><stop offset="0" stop-color="#f8c898"/><stop offset=".035" stop-color="#fdc7a7"/><stop offset="1" stop-color="#fdddc0"/></radialGradient><path d="M12.6 24.55l.85 2.9.55 1.4q.4 1.15-.6 2.35l-.7.65-1.9 1.9Q9.35 35.2 8.05 35q-1.35-.2-2.7-1.5-1.4-1.25-2.45-1.25-1.1 0-1.55.8-2.3-1.55-2.3-3.8 0-2.35 1.4-3.55 1.4-1.15 1.05-.2-.4.95-.35 2.6.05 1.7 1.15 2.1l1.6.5q-.6-1.2.35-2.6-.25 1.2.1 1.95l.6 1.05.5.6.85.7q.9.65 1.9.65 1.2 0 2.45-1.05 1.35-1.35 1.9-2.8l-.05-.7-.2-3.8-.1-2.6.4 2.45m-8 3.35l-.25.25.05-.25q.15-1.1.2 0" fill="url(#c)"/><radialGradient id="d" gradientUnits="userSpaceOnUse" gradientTransform="matrix(.00786 -.00139 .003 .01988 11.9 21.6)" spreadMethod="pad" cx="0" cy="0" r="819.2" fx="0" fy="0"><stop offset="0" stop-color="#f8c898"/><stop offset=".035" stop-color="#fdc7a7"/><stop offset="1" stop-color="#fdddc0"/></radialGradient><path d="M11.3 21.65L10.55 9.4l2.5 7.8Q14.8 23.75 15.3 29l.1 1.1q-3.2 2.95-3.8.9l.5-2.45-.65-2.7-.15-4.2" fill="url(#d)"/><radialGradient id="e" gradientUnits="userSpaceOnUse" gradientTransform="matrix(.0048 -.00392 .0065 .01494 13.9 26.75)" spreadMethod="pad" cx="0" cy="0" r="819.2" fx="0" fy="0"><stop offset=".337" stop-color="#f9c29f"/><stop offset="1" stop-color="#fedec1" stop-opacity="0"/></radialGradient><path d="M17.7 23.4q1.1.35 1.4.6.55.6 1.05 3.65.5 3-2.3 4.2-2.8 1.15-5.55.3 2.65-2.1 1.95-4.25-1.7-5-3.7-12.9l.65 1.65-.65-1.8q4.55 7.75 7.15 8.55m.6 13.85v.1l-.15-.2.15.1" fill="url(#e)"/><radialGradient id="f" gradientUnits="userSpaceOnUse" gradientTransform="matrix(-.0131 -.00166 .00331 .0391 -8.15 34.15)" spreadMethod="pad" cx="0" cy="0" r="819.2" fx="0" fy="0"><stop offset=".337" stop-color="#f9c29f"/><stop offset="1" stop-color="#fedec1" stop-opacity="0"/></radialGradient><path d="M6.35 14.85L6.3 15l.05-.15M4.6 32.2q-2.55.9-4.7 0-2.2-.95-1.8-3.5.35-2.6 2.1-3.5l1.2-.8q.85 5.95 3.2 7.8m-5.8 4.95l-.15.15v-.1l.15-.05" fill="url(#f)"/><radialGradient id="g" gradientUnits="userSpaceOnUse" gradientTransform="matrix(.0131 -.00166 -.00331 .0391 9.7 14.15)" spreadMethod="pad" cx="0" cy="0" r="819.2" fx="0" fy="0"><stop offset=".337" stop-color="#f9c29f"/><stop offset="1" stop-color="#fedec1" stop-opacity="0"/></radialGradient><path d="M-3.25-5.7l-.05-.15.1.15h-.05m8.1 10.4L4.9 10l-.4 6.7-.05.85v.55l-.2 1.4.15-.6-.2 3.8Q2.3 34.95-.5 10.3q.15-4.25 1.55-7.05l.6-1.35Q-.3-2.55 4.85 4.7" fill="url(#g)"/><radialGradient id="h" gradientUnits="userSpaceOnUse" gradientTransform="matrix(.00732 .00026 -.00024 .00792 7.75 37)" spreadMethod="pad" cx="0" cy="0" r="819.2" fx="0" fy="0"><stop offset="0" stop-color="#f39b61"/><stop offset="1" stop-color="#f8be98"/></radialGradient><path d="M13.3 30.85l1.1-.2q2.1-.45 2.05-1.85-.05-1.4-3.55-2.25.65.6.9 2.1l-.05.35q0-1.4-1.1-2.7L12 22.65l-.75-9.05q-.7-6.6.05-8.65.8-2.15 5.1-4.65-2.65 7.25-2.4 11.1l.6 7.15q.2 2.4 1 5.45l.35 1.15 1.35 1.5q1.25 1.45.75 3.4t-2.2 2.6q-1.75.6-2.5 1.15l-2.3 1.45-.4.2q-1.95 1.45-3.6.6L3.8 34.3l-2.3-.7q-2.35-.9-.6-1.75 1.7-.85 3.05.45l3.2 2.4q1.85 1.05 4.9-2.25l1.35-2-.1.4" fill="url(#h)"/><radialGradient id="i" gradientUnits="userSpaceOnUse" gradientTransform="matrix(.01274 0 0 .01299 4.6 28.1)" spreadMethod="pad" cx="0" cy="0" r="819.2" fx="0" fy="0"><stop offset="0" stop-color="#f39b61"/><stop offset="1" stop-color="#f9c8a8"/></radialGradient><path d="M13.75 29l.05-.35q-.25-1.5-.9-2.1 3.5.85 3.55 2.25.05 1.4-2.05 1.85l-1.1.2.1-.4.35-1.45" fill="url(#i)"/><path d="M14.1 33.15q.5-.6-.2-.5-.7.1-1.5.8l-1.65 1.45-.65.5-.85.35-.65.1-.45-.1-1.35-.45-.25-.1h.05l1 .2 2.2-.3 1.15-.85H11l1.5-1.5q.75-.85 2.1-.65 1.3.2-.5 1.05M2 32.8l.05.45q-1.5-.95-.1-1.1 1.4-.2 2.3.85l2.1 2.05v.05l-.6-.3-1.65-1.25q-1.35-1.1-2.1-.75" fill="#823909"/><radialGradient id="j" gradientUnits="userSpaceOnUse" gradientTransform="matrix(.0028 .00027 -.0001 .01161 7.45 14.6)" spreadMethod="pad" cx="0" cy="0" r="819.2" fx="0" fy="0"><stop offset=".314" stop-color="#fff" stop-opacity=".431"/><stop offset="1" stop-color="#fff" stop-opacity="0"/></radialGradient><path d="M7.45 5.25q.75.05 1.25 2.9.45 2.8.45 6.7-.1 3.9-.6 6.6l-.35 1.4-.1.2q-.35 1.1-.8 1.05-.5-.05-.85-1.25l-.05-.2-.35-1.4q-.5-2.8-.45-6.7.05-3.95.6-6.7.5-2.7 1.25-2.6" fill="url(#j)"/><radialGradient id="k" gradientUnits="userSpaceOnUse" gradientTransform="matrix(.00217 .00012 -.00012 .00235 6.85 27.3)" spreadMethod="pad" cx="0" cy="0" r="819.2" fx="0" fy="0"><stop offset=".314" stop-color="#fff" stop-opacity=".431"/><stop offset="1" stop-color="#fff" stop-opacity="0"/></radialGradient><path d="M7.9 28.65q-.55.55-1.2.5-.75-.05-1.2-.65-.5-.6-.45-1.35 0-.75.5-1.25.6-.55 1.35-.5.7 0 1.15.55.5.6.45 1.4-.05.8-.6 1.3" fill="url(#k)"/></g></svg>

<?xml version="1.0" encoding="utf-8"?>
<svg version="1.1" id="Layer_1"
xmlns="http://www.w3.org/2000/svg"
xmlns:xlink="http://www.w3.org/1999/xlink"
xmlns:author="http://www.sothink.com"
width="24px" height="44px"
xml:space="preserve">
<g id="443" transform="matrix(1, 0, 0, 1, 3.3, 5.85)">
<radialGradient
id="RadialGradID_3929" gradientUnits="userSpaceOnUse" gradientTransform="matrix(0.00567627, -0.00222778, 0.00215149, 0.0163574, 13.6, 20.35)" spreadMethod ="pad" cx="0" cy="0" r="819.2" fx="0" fy="0" >
<stop  offset="0.337255"  style="stop-color:#F9C29F;stop-opacity:1" />
<stop  offset="1"  style="stop-color:#FEDEC1;stop-opacity:0" />
</radialGradient>
<path style="fill:url(#RadialGradID_3929) " d="M19.7,22.4Q19.75 25.15 16.65 27.6Q15.6 28.35 14.95 31.7L14.95 31.8L14.95 31.85L14.75 31.45Q13.9 26.8 13.65 21.5Q13.4 16.25 13.6 8L13.8 9.8L13.65 7.85Q15.9 16.75 18.2 18.3L19.3 19.3Q19.7 20.1 19.7 22.4" />
<radialGradient
id="RadialGradID_3930" gradientUnits="userSpaceOnUse" gradientTransform="matrix(0.00396729, 0, 0, 0.00830078, 2.55, 20.55)" spreadMethod ="pad" cx="0" cy="0" r="819.2" fx="0" fy="0" >
<stop  offset="0"  style="stop-color:#F8C898;stop-opacity:1" />
<stop  offset="0.0352941"  style="stop-color:#FDC7A7;stop-opacity:1" />
<stop  offset="1"  style="stop-color:#FDDDC0;stop-opacity:1" />
</radialGradient>
<path style="fill:url(#RadialGradID_3930) " d="M5.25,26.5L5.15 27.5Q0.75 29.85 1.35 26.6L2.35 19.9L3.45 9.75L4.75 16.55Q5.55 22.15 5.25 26.5" />
<radialGradient
id="RadialGradID_3931" gradientUnits="userSpaceOnUse" gradientTransform="matrix(0.000106812, 0.0065918, -0.0413208, 0.000778198, 13.05, 33.9)" spreadMethod ="pad" cx="0" cy="0" r="819.2" fx="0" fy="0" >
<stop  offset="0"  style="stop-color:#F8C898;stop-opacity:1" />
<stop  offset="0.0352941"  style="stop-color:#FDC7A7;stop-opacity:1" />
<stop  offset="1"  style="stop-color:#FDDDC0;stop-opacity:1" />
</radialGradient>
<path style="fill:url(#RadialGradID_3931) " d="M12.6,24.55L13.45 27.45L14 28.85Q14.4 30 13.4 31.2L12.7 31.85L10.8 33.75Q9.35 35.2 8.05 35Q6.7 34.8 5.35 33.5Q3.95 32.25 2.9 32.25Q1.8 32.25 1.35 33.05Q-0.95 31.5 -0.95 29.25Q-0.95 26.9 0.45 25.7Q1.85 24.55 1.5 25.5Q1.1 26.45 1.15 28.1Q1.2 29.8 2.3 30.2L3.9 30.7Q3.3 29.5 4.25 28.1Q4 29.3 4.35 30.05L4.95 31.1L5.45 31.7L6.3 32.4Q7.2 33.05 8.2 33.05Q9.4 33.05 10.65 32Q12 30.65 12.55 29.2L12.5 28.5L12.3 24.7L12.2 22.1L12.6 24.55M4.6,27.9L4.35 28.15L4.4 27.9Q4.55 26.8 4.6 27.9" />
<radialGradient
id="RadialGradID_3932" gradientUnits="userSpaceOnUse" gradientTransform="matrix(0.00785828, -0.00138855, 0.00300598, 0.0198822, 11.9, 21.6)" spreadMethod ="pad" cx="0" cy="0" r="819.2" fx="0" fy="0" >
<stop  offset="0"  style="stop-color:#F8C898;stop-opacity:1" />
<stop  offset="0.0352941"  style="stop-color:#FDC7A7;stop-opacity:1" />
<stop  offset="1"  style="stop-color:#FDDDC0;stop-opacity:1" />
</radialGradient>
<path style="fill:url(#RadialGradID_3932) " d="M11.3,21.65L10.55 9.4L13.05 17.2Q14.8 23.75 15.3 29L15.4 30.1Q12.2 33.05 11.6 31L12.1 28.55L11.45 25.85L11.3 21.65" />
<radialGradient
id="RadialGradID_3933" gradientUnits="userSpaceOnUse" gradientTransform="matrix(0.00480652, -0.00392151, 0.00650024, 0.0149384, 13.9, 26.75)" spreadMethod ="pad" cx="0" cy="0" r="819.2" fx="0" fy="0" >
<stop  offset="0.337255"  style="stop-color:#F9C29F;stop-opacity:1" />
<stop  offset="1"  style="stop-color:#FEDEC1;stop-opacity:0" />
</radialGradient>
<path style="fill:url(#RadialGradID_3933) " d="M17.7,23.4Q18.8 23.75 19.1 24Q19.65 24.6 20.15 27.65Q20.65 30.65 17.85 31.85Q15.05 33 12.3 32.15Q14.95 30.05 14.25 27.9Q12.55 22.9 10.55 15L11.2 16.65L10.55 14.85Q15.1 22.6 17.7 23.4M18.3,37.25L18.3 37.35L18.15 37.15L18.3 37.25" />
<radialGradient
id="RadialGradID_3934" gradientUnits="userSpaceOnUse" gradientTransform="matrix(-0.013092, -0.00166321, 0.00331116, 0.0391083, -8.15, 34.15)" spreadMethod ="pad" cx="0" cy="0" r="819.2" fx="0" fy="0" >
<stop  offset="0.337255"  style="stop-color:#F9C29F;stop-opacity:1" />
<stop  offset="1"  style="stop-color:#FEDEC1;stop-opacity:0" />
</radialGradient>
<path style="fill:url(#RadialGradID_3934) " d="M6.35,14.85L6.3 15L6.35 14.85M4.6,32.2Q2.05 33.1 -0.1 32.2Q-2.3 31.25 -1.9 28.7Q-1.55 26.1 0.2 25.2L1.4 24.4Q2.25 30.35 4.6 32.2M-1.2,37.15L-1.35 37.3L-1.35 37.2L-1.2 37.15" />
<radialGradient
id="RadialGradID_3935" gradientUnits="userSpaceOnUse" gradientTransform="matrix(0.013092, -0.00166321, -0.00331116, 0.0391083, 9.7, 14.15)" spreadMethod ="pad" cx="0" cy="0" r="819.2" fx="0" fy="0" >
<stop  offset="0.337255"  style="stop-color:#F9C29F;stop-opacity:1" />
<stop  offset="1"  style="stop-color:#FEDEC1;stop-opacity:0" />
</radialGradient>
<path style="fill:url(#RadialGradID_3935) " d="M-3.25,-5.7L-3.3 -5.85L-3.2 -5.7L-3.25 -5.7M4.85,4.7L4.9 10L4.5 16.7L4.45 17.55L4.45 18.1L4.25 19.5L4.4 18.9L4.2 22.7Q2.3 34.95 -0.5 10.3Q-0.35 6.05 1.05 3.25L1.65 1.9Q-0.3 -2.55 4.85 4.7" />
<radialGradient
id="RadialGradID_3936" gradientUnits="userSpaceOnUse" gradientTransform="matrix(0.00732422, 0.000259399, -0.000244141, 0.00791931, 7.75, 37)" spreadMethod ="pad" cx="0" cy="0" r="819.2" fx="0" fy="0" >
<stop  offset="0"  style="stop-color:#F39B61;stop-opacity:1" />
<stop  offset="1"  style="stop-color:#F8BE98;stop-opacity:1" />
</radialGradient>
<path style="fill:url(#RadialGradID_3936) " d="M13.3,30.85L14.4 30.65Q16.5 30.2 16.45 28.8Q16.4 27.4 12.9 26.55Q13.55 27.15 13.8 28.65L13.75 29Q13.75 27.6 12.65 26.3L12 22.65L11.25 13.6Q10.55 7 11.3 4.95Q12.1 2.8 16.4 0.3Q13.75 7.55 14 11.4L14.6 18.55Q14.8 20.95 15.6 24L15.95 25.15L17.3 26.65Q18.55 28.1 18.05 30.05Q17.55 32 15.85 32.65Q14.1 33.25 13.35 33.8L11.05 35.25L10.65 35.45Q8.7 36.9 7.05 36.05L3.8 34.3L1.5 33.6Q-0.85 32.7 0.9 31.85Q2.6 31 3.95 32.3L7.15 34.7Q9 35.75 12.05 32.45L13.4 30.45L13.3 30.85" />
<radialGradient
id="RadialGradID_3937" gradientUnits="userSpaceOnUse" gradientTransform="matrix(0.0127411, 0, 0, 0.0129852, 4.6, 28.1)" spreadMethod ="pad" cx="0" cy="0" r="819.2" fx="0" fy="0" >
<stop  offset="0"  style="stop-color:#F39B61;stop-opacity:1" />
<stop  offset="1"  style="stop-color:#F9C8A8;stop-opacity:1" />
</radialGradient>
<path style="fill:url(#RadialGradID_3937) " d="M13.75,29L13.8 28.65Q13.55 27.15 12.9 26.55Q16.4 27.4 16.45 28.8Q16.5 30.2 14.4 30.65L13.3 30.85L13.4 30.45L13.75 29" />
<path style="fill:#823909;fill-opacity:1" d="M14.1,33.15Q14.6 32.55 13.9 32.65Q13.2 32.75 12.4 33.45L10.75 34.9L10.1 35.4L9.25 35.75L8.6 35.85L8.15 35.75L6.8 35.3L6.55 35.2L6.6 35.2L7.6 35.4L9.8 35.1L10.95 34.25L11 34.25L12.5 32.75Q13.25 31.9 14.6 32.1Q15.9 32.3 14.1 33.15M2,32.8L2.05 33.25Q0.55 32.3 1.95 32.15Q3.35 31.95 4.25 33L6.35 35.05L6.35 35.1L5.75 34.8L4.1 33.55Q2.75 32.45 2 32.8" />
<radialGradient
id="RadialGradID_3938" gradientUnits="userSpaceOnUse" gradientTransform="matrix(0.00279236, 0.000274658, -0.000106812, 0.0116119, 7.45, 14.6)" spreadMethod ="pad" cx="0" cy="0" r="819.2" fx="0" fy="0" >
<stop  offset="0.313725"  style="stop-color:#FFFFFF;stop-opacity:0.431373" />
<stop  offset="1"  style="stop-color:#FFFFFF;stop-opacity:0" />
</radialGradient>
<path style="fill:url(#RadialGradID_3938) " d="M7.45,5.25Q8.2 5.3 8.7 8.15Q9.15 10.95 9.15 14.85Q9.05 18.75 8.55 21.45L8.2 22.85L8.1 23.05Q7.75 24.15 7.3 24.1Q6.8 24.05 6.45 22.85L6.4 22.65L6.05 21.25Q5.55 18.45 5.6 14.55Q5.65 10.6 6.2 7.85Q6.7 5.15 7.45 5.25" />
<radialGradient
id="RadialGradID_3939" gradientUnits="userSpaceOnUse" gradientTransform="matrix(0.00216675, 0.00012207, -0.00012207, 0.00234985, 6.85, 27.3)" spreadMethod ="pad" cx="0" cy="0" r="819.2" fx="0" fy="0" >
<stop  offset="0.313725"  style="stop-color:#FFFFFF;stop-opacity:0.431373" />
<stop  offset="1"  style="stop-color:#FFFFFF;stop-opacity:0" />
</radialGradient>
<path style="fill:url(#RadialGradID_3939) " d="M7.9,28.65Q7.35 29.2 6.7 29.15Q5.95 29.1 5.5 28.5Q5 27.9 5.05 27.15Q5.05 26.4 5.55 25.9Q6.15 25.35 6.9 25.4Q7.6 25.4 8.05 25.95Q8.55 26.55 8.5 27.35Q8.45 28.15 7.9 28.65" />
</g>
</svg>
